images/icons/logo.svg

<svg width="129" height="16" viewBox="0 0 129 16" fill="none" xmlns="http://www.w3.org/2000/svg">
<path d="M10.4191 15.7846L9.4082 13.0251H2.74338L1.65907 15.7846H0L6.23273 0L12.1027 15.7846H10.4191ZM6.15936 3.95834L3.19993 11.7287H8.92719L6.15936 3.95834Z" fill="#0F303F"/>
<path d="M20.6914 15.7846V0.552734H22.3016V14.4395H27.0424V15.7846H20.6914Z" fill="#0F303F"/>
<path d="M35.916 15.7846V0.552734H37.5262V14.4395H42.267V15.7846H35.916Z" fill="#0F303F"/>
<path d="M51.1465 15.7846V0.552734H58.6999V1.96701H52.7566V5.58804H56.8004V6.95355H52.7566V14.4598H58.9649V15.7806H51.1465V15.7846Z" fill="#0F303F"/>
<path d="M75.4693 15.9999C71.1646 15.9756 67.3125 13.6022 67.3125 8.51403C67.3125 3.73883 71.0668 0.312866 76.044 0.312866C76.309 0.312866 76.574 0.312866 76.8389 0.33725V1.75153C76.5495 1.72714 76.2601 1.70276 75.9747 1.70276C72.0777 1.72714 68.8778 4.14929 68.8778 8.51403C68.8778 12.83 72.3182 14.6791 75.4203 14.6791C75.6364 14.6791 75.8524 14.6791 76.0685 14.6548V6.28289H72.7707V5.03524H77.5808V15.8049C76.8878 15.9268 76.1663 15.9999 75.4693 15.9999Z" fill="#0F303F"/>
<path d="M94.6927 12.1148L97.1222 15.7846H95.3408L93.3434 12.6919C92.6953 12.9561 91.7537 13.1715 90.7916 13.1715C90.3106 13.1715 89.7807 13.1227 89.3242 13.0292V15.7887H87.7344V0.552734H90.5715C95.5528 0.552734 97.5013 3.47882 97.5013 7.07547C97.5054 8.87582 96.8328 10.7697 94.6927 12.1148ZM90.8895 1.86947H89.3242V11.6556C89.8541 11.8222 90.2862 11.8954 90.865 11.8954C91.4683 11.8954 92.1898 11.7978 92.6219 11.5825L91.2523 9.54232L92.4792 8.77422L93.9223 10.9566C95.1248 10.2373 96.0134 8.91646 96.0134 7.26241C96.0134 3.38128 93.4657 1.86947 90.8895 1.86947Z" fill="#0F303F"/>
<path d="M106.891 15.7846V0.552734H108.48V15.7846H106.891Z" fill="#0F303F"/>
<path d="M127.316 15.7846L126.305 13.0251H119.64L118.556 15.7846H116.896L123.129 0L128.999 15.7846H127.316ZM123.056 3.95834L120.096 11.7287H125.824L123.056 3.95834Z" fill="#0F303F"/>
</svg>

<svg width="129" height="16" fill="none" xmlns="http://www.w3.org/2000/svg"><path d="m10.42 15.785-1.012-2.76H2.743l-1.084 2.76H0L6.233 0l5.87 15.785h-1.684ZM6.16 3.958l-2.96 7.77h5.727L6.16 3.959ZM20.691 15.785V.553h1.61v13.886h4.741v1.346h-6.35ZM35.916 15.785V.553h1.61v13.886h4.741v1.346h-6.351ZM51.147 15.785V.553H58.7v1.414h-5.943v3.621H56.8v1.366h-4.043v7.506h6.208v1.32h-7.819v.005ZM75.47 16c-4.305-.024-8.157-2.398-8.157-7.486 0-4.775 3.754-8.201 8.731-8.201.265 0 .53 0 .795.024v1.415c-.29-.025-.579-.05-.864-.05-3.897.025-7.097 2.447-7.097 6.812 0 4.316 3.44 6.165 6.542 6.165.216 0 .432 0 .648-.024V6.283h-3.297V5.035h4.81v10.77c-.693.122-1.415.195-2.112.195ZM94.693 12.115l2.43 3.67H95.34l-1.998-3.093c-.648.264-1.59.48-2.551.48a7.61 7.61 0 0 1-1.468-.143v2.76h-1.59V.553h2.838c4.98 0 6.93 2.926 6.93 6.522.003 1.8-.67 3.695-2.81 5.04ZM90.89 1.869h-1.566v9.787c.53.166.962.24 1.541.24.603 0 1.325-.098 1.757-.314l-1.37-2.04 1.227-.768 1.443 2.183a4.263 4.263 0 0 0 2.091-3.695c0-3.88-2.547-5.393-5.124-5.393ZM106.891 15.785V.553h1.589v15.232h-1.589ZM127.316 15.785l-1.011-2.76h-6.665l-1.084 2.76h-1.66L123.129 0l5.87 15.785h-1.683Zm-4.26-11.827-2.96 7.77h5.728l-2.768-7.77Z" fill="#0F303F"/></svg>
